X: 662
T: Jian lantan
L: 1/16
M: 2/4
K: F
d2 d e d2 c d [I:setbarnb 1]| 
f2 e d c2 A2 | 
c2 A c d e d c | 
A G F DG4 | 
c2 c A A f e d | 
d A c d F2 E D | 
c2 c A c A G F | 
G D2 ED4 |]

@@@ Tune index: 9536
